pix/i/db.svg

<!DOCTYPE svg PUBLIC "-//W3C//DTD SVG 1.1//EN" "http://www.w3.org/Graphics/SVG/1.1/DTD/svg11.dtd" [
	<!ENTITY ns_flows "http://ns.adobe.com/Flows/1.0/">
]><svg xmlns="http://www.w3.org/2000/svg" width="16" height="16" viewBox="-2 -1 16 16" preserveAspectRatio="xMinYMid meet" overflow="visible"><path d="M12 11v2c0 1-2.7 1.9-6 1.9s-6-.8-6-1.9v-2c0 1 2.7 1.9 6 1.9s6-.8 6-1.9zM6 9.9c-3.3 0-6-.8-6-1.9v2c0 1 2.7 1.9 6 1.9s6-.8 6-1.9V8c0 1.1-2.7 1.9-6 1.9zm0-3c-3.3 0-6-.8-6-1.9v2c0 1 2.7 1.9 6 1.9s6-.8 6-1.9V5c0 1.1-2.7 1.9-6 1.9zm6-5C12 .8 9.3 0 6 0S0 .8 0 1.9V4c0 1 2.7 1.9 6 1.9s6-.8 6-1.9V1.9z" fill="#999"/></svg>

<?xml version="1.0" encoding="utf-8"?>
<!-- Generator: Adobe Illustrator 15.1.0, SVG Export Plug-In  -->
<!DOCTYPE svg PUBLIC "-//W3C//DTD SVG 1.1//EN" "http://www.w3.org/Graphics/SVG/1.1/DTD/svg11.dtd" [
	<!ENTITY ns_flows "http://ns.adobe.com/Flows/1.0/">
]>
<svg version="1.1"
	 xmlns="http://www.w3.org/2000/svg" xmlns:xlink="http://www.w3.org/1999/xlink" xmlns:a="http://ns.adobe.com/AdobeSVGViewerExtensions/3.0/"
	 x="0px" y="0px" width="16px" height="16px" viewBox="-2 -1 16 16" style="overflow:visible;enable-background:new -2 -1 16 16;"
	 xml:space="preserve" preserveAspectRatio="xMinYMid meet">
<defs>
</defs>
<path style="fill:#999999;" d="M12,11c0,1.2,0,2,0,2c0,1-2.7,1.9-6,1.9c-3.3,0-6-0.8-6-1.9c0,0,0-0.8,0-2c0,1,2.7,1.9,6,1.9
	C9.3,12.9,12,12.1,12,11z M6,9.9C2.7,9.9,0,9.1,0,8c0,1.2,0,2,0,2c0,1,2.7,1.9,6,1.9c3.3,0,6-0.8,6-1.9c0,0,0-0.8,0-2
	C12,9.1,9.3,9.9,6,9.9z M6,6.9C2.7,6.9,0,6.1,0,5c0,1.2,0,2,0,2c0,1,2.7,1.9,6,1.9c3.3,0,6-0.8,6-1.9c0,0,0-0.8,0-2
	C12,6.1,9.3,6.9,6,6.9z M12,1.9C12,0.8,9.3,0,6,0C2.7,0,0,0.8,0,1.9C0,1.9,0,4,0,4c0,1,2.7,1.9,6,1.9c3.3,0,6-0.8,6-1.9
	C12,4,12,1.9,12,1.9z"/>
</svg>
